X:28
T:Mist Covered mountain Set/ Walls of Liscarroll
C:Na Connery's play the first tune in Dm, which fits better than the more common Am. Consider playing the set the other way round
T:Mist Covered Mountain, The
M:6/8
K:D
|:EAA ABd|edB dBA|G3 GAB|dBA GED|
EAA ABd|eAA Bcd|efg dBG|BAG A3:|:
age a2b|age edB|AGE G2A|BAB GED|
age a2b|age edB|AGE G2A|BAG A3:|
T:The walls of Liscarroll, The
C:anon.
O:Ireland
B:Francis O'Neill: "The Dance Music of Ireland" (1907) no. 8
R:Double jig
K:Dmix
A|:dcA AGE|GED D2E|GEE cEE|GAB cde|
dcA AGE|GED D2E|GEE cEE|DED D2:|:
dcd ecA|dcd ecA|GEE cEE|GAB cde|
1dcd ecA|dcd ecA|GEE cEE|DED D2:|
2dcA AGE|GEE D2E|GEE cEE|DED D2|

